X: 1108
T: Kingsail: A new Tune.
%R: minuet, waltz, jig
B: Henry Playford "Apollo's Banquet", London 1687 (5th Edition)
F: https://archive.org/details/apollosbanquetco01rugg
Z: 2017 John Chambers <jc:trillian.mit.edu>
M: 3/2
L: 1/8
K: C
% - - - - - - - - - -
G2 |\
E3FG2 A2G2A2 | c4(g2 a2)g2e2 | d6 G4F2 |\
E3FG2 A2G2e2 | fedcBA B2G2B2 | c6 C4 :|
|: D2 |\
E3FG2 A2F2A2 | (AB)c2A2 (G2E2)C2 | D2E4 G4e2 |\
f3ga2 agabc'2 | g2fedc B3AG2 | c6 C4 |]
% - - - - - - - - - -

%%sep 1 1 500
%%sep 1 1 500

